assets/img/likes-bold.svg

<svg width="24" height="24" viewBox="0 0 24 24" fill="none" xmlns="http://www.w3.org/2000/svg">
<path fill-rule="evenodd" clip-rule="evenodd" d="M15.8498 2.50065C16.4808 2.50065 17.1108 2.58965 17.7098 2.79065C21.4008 3.99065 22.7308 8.04065 21.6198 11.5806C20.9898 13.3896 19.9598 15.0406 18.6108 16.3896C16.6798 18.2596 14.5608 19.9196 12.2798 21.3496L12.0298 21.5006L11.7698 21.3396C9.48077 19.9196 7.34977 18.2596 5.40077 16.3796C4.06077 15.0306 3.02977 13.3896 2.38977 11.5806C1.25977 8.04065 2.58977 3.99065 6.32077 2.76965C6.61077 2.66965 6.90977 2.59965 7.20977 2.56065H7.32977C7.61077 2.51965 7.88977 2.50065 8.16977 2.50065H8.27977C8.90977 2.51965 9.51977 2.62965 10.1108 2.83065H10.1698C10.2098 2.84965 10.2398 2.87065 10.2598 2.88965C10.4808 2.96065 10.6898 3.04065 10.8898 3.15065L11.2698 3.32065C11.3616 3.36962 11.4647 3.44445 11.5537 3.50912C11.6102 3.55009 11.661 3.58699 11.6998 3.61065C11.7161 3.62028 11.7327 3.62996 11.7494 3.63972C11.8351 3.68977 11.9245 3.74191 11.9998 3.79965C13.1108 2.95065 14.4598 2.49065 15.8498 2.50065ZM18.5098 9.70065C18.9198 9.68965 19.2698 9.36065 19.2998 8.93965V8.82065C19.3298 7.41965 18.4808 6.15065 17.1898 5.66065C16.7798 5.51965 16.3298 5.74065 16.1798 6.16065C16.0398 6.58065 16.2598 7.04065 16.6798 7.18965C17.3208 7.42965 17.7498 8.06065 17.7498 8.75965V8.79065C17.7308 9.01965 17.7998 9.24065 17.9398 9.41065C18.0798 9.58065 18.2898 9.67965 18.5098 9.70065Z" fill="#AE63FF"/>
</svg>

<svg xmlns="http://www.w3.org/2000/svg" width="24" height="24" fill="none"><path fill="#AE63FF" fill-rule="evenodd" d="M15.85 2.5c.63 0 1.26.09 1.86.29 3.69 1.2 5.02 5.25 3.91 8.79a12.7 12.7 0 0 1-3.01 4.81 38.5 38.5 0 0 1-6.33 4.96l-.25.15-.26-.16a38 38 0 0 1-6.37-4.96 12.9 12.9 0 0 1-3.01-4.8c-1.13-3.54.2-7.59 3.93-8.81.29-.1.59-.17.89-.21h.12q.42-.06.84-.06h.11q.945.03 1.83.33h.06q.06.03.09.06c.22.07.43.15.63.26l.38.17c.092.05.195.124.284.19.056.04.107.077.146.1l.05.03c.085.05.175.102.25.16a6.26 6.26 0 0 1 3.85-1.3m2.66 7.2c.41-.01.76-.34.79-.76v-.12a3.3 3.3 0 0 0-2.11-3.16.8.8 0 0 0-1.01.5c-.14.42.08.88.5 1.03.64.24 1.07.87 1.07 1.57v.03a.86.86 0 0 0 .19.62c.14.17.35.27.57.29" clip-rule="evenodd"/></svg>
